Origami/24x24/apps/bitcoin.svg

<svg width="24" height="24" version="1.1" viewBox="0 0 24 24" xmlns="http://www.w3.org/2000/svg">
 <circle cx="12" cy="12" r="10" style="fill:#f7931a"/>
 <path d="m12 2a10 10 0 0 0 -10 10 10 10 0 0 0 0.01075 0.291 10 10 0 0 1 9.989 -9.791 10 10 0 0 1 9.9895 9.709 10 10 0 0 0 0.01074 -0.20895 10 10 0 0 0 -10 -10z" style="fill:#ffffff;opacity:.2"/>
 <path d="M 21.9895,12.2 A 10,10 0 0 1 12,22 10,10 0 0 1 2.011,12.25 10,10 0 0 0 2,12.5 a 10,10 0 0 0 10,10 10,10 0 0 0 10,-10 10,10 0 0 0 -0.01075,-0.29105 z" style="opacity:.2"/>
 <path d="m10 6.5v2c-0.245847 0.01-0.6980897 0-0.9335938 0h-1.0664062v1s0.3594181-0.014995 0.3457031 0c0.460129-7e-3 0.6066569 0.326067 0.6542969 0.548828v4.951172c-0.017635 0.140776-0.0026497 0.49-0.3242188 0.5 0.01485 0.013-0.6757812 0-0.6757812 0v1h1.1269531c0.275102-0.01 0.6072879 0 0.8730469 0v2l1-0.01758v-1.98242h0.984375l0.03125 2h1l-0.03125-2c1.907812-0.138476 3.015625-0.366372 3.015625-2.5 0-1.5-1.000911-1.999045-2.183797-2 0.750318-0.05682 1.183256-0.5 1.183594-1.75 2.03e-4 -0.75-0.433276-1.75-1-1.75h-0.999797v-2h-1v2c-0.298624-5e-6 -0.69683-0.011-1 0v-2zm1 3c1.410185 0 2.000138 1.5e-5 2 1 1.38e-4 1.000066-0.730627 1-2 1zm0 3c2 7.5e-5 3.000208 2.3e-5 3 1.5 2.08e-4 1.500099-1 1.5-3 1.5z" style="opacity:.2"/>
 <path d="m10 6v2c-0.245847 0.01-0.6980897 0-0.9335938 0h-1.0664062v1s0.3594181-0.014995 0.3457031 0c0.460129-7e-3 0.6066569 0.3260671 0.6542969 0.5488281v4.9511719c-0.017635 0.140776-0.0026497 0.49-0.3242188 0.5 0.01485 0.013-0.6757812 0-0.6757812 0v1h1.1269531c0.275102-0.01 0.6072879 0 0.8730469 0v2l1-0.01758v-1.98242h0.984375l0.03125 2h1l-0.03125-2c1.907812-0.138476 3.015625-0.366372 3.015625-2.5 0-1.5-1.000911-1.999045-2.183797-2 0.750318-0.056825 1.183256-0.5 1.183594-1.75 2.03e-4 -0.75-0.433276-1.75-1-1.75h-0.999797v-2h-1v2c-0.298624-5e-6 -0.69683-0.011-1 0v-2zm1 3c1.410185 0 2.000138 1.52e-5 2 1 1.38e-4 1.000066-0.730627 1-2 1zm0 3c2 7.5e-5 3.000208 2.3e-5 3 1.5 2.08e-4 1.500099-1 1.5-3 1.5z" style="fill:#ffffff"/>
</svg>

<svg xmlns="http://www.w3.org/2000/svg" width="24" height="24" version="1.1" viewBox="0 0 24 24">
 <circle style="fill:#f7931a" cx="12" cy="12" r="10"/>
 <path style="opacity:0.2;fill:#ffffff" d="m 12,2 a 10,10 0 0 0 -10,10 10,10 0 0 0 0.01075,0.291 10,10 0 0 1 9.989,-9.791 10,10 0 0 1 9.9895,9.709 10,10 0 0 0 0.01074,-0.20895 10,10 0 0 0 -10,-10 z"/>
 <path style="opacity:0.2" d="M 21.9895,12.2 A 10,10 0 0 1 12,22 10,10 0 0 1 2.011,12.25 10,10 0 0 0 2,12.5 a 10,10 0 0 0 10,10 10,10 0 0 0 10,-10 10,10 0 0 0 -0.01075,-0.29105 z"/>
 <path style="opacity:0.2" d="m 10,6.5 0,2 c -0.245847,0.01 -0.6980897,0 -0.9335938,0 L 8,8.5 l 0,1 c 0,0 0.3594181,-0.014995 0.3457031,0 C 8.8058321,9.493 8.95236,9.826067 9,10.048828 L 9,15 C 8.982365,15.140776 8.9973503,15.49 8.6757812,15.5 8.6906312,15.513 8,15.5 8,15.5 l 0,1 1.1269531,0 C 9.4020551,16.49 9.734241,16.5 10,16.5 l 0,2 1,-0.01758 0,-1.98242 0.984375,0 0.03125,2 1,0 -0.03125,-2 C 14.892187,16.361524 16,16.133628 16,14 16,12.5 14.999089,12.000955 13.816203,12 14.566521,11.94318 14.999459,11.5 14.999797,10.25 15,9.5 14.566521,8.5 13.999797,8.5 L 13,8.5 l 0,-2 -1,0 0,2 c -0.298624,-5e-6 -0.69683,-0.011 -1,0 l 0,-2 z m 1,3 c 1.410185,0 2.000138,1.5e-5 2,1 1.38e-4,1.000066 -0.730627,1 -2,1 z m 0,3 c 2,7.5e-5 3.000208,2.3e-5 3,1.5 2.08e-4,1.500099 -1,1.5 -3,1.5 z"/>
 <path style="fill:#ffffff" d="m 10,6 0,2 C 9.754153,8.01 9.3019103,8 9.0664062,8 L 8,8 8,9 C 8,9 8.3594181,8.985005 8.3457031,9 8.8058321,8.993 8.95236,9.3260671 9,9.5488281 L 9,14.5 C 8.982365,14.640776 8.9973503,14.99 8.6757812,15 8.6906312,15.013 8,15 8,15 l 0,1 1.1269531,0 C 9.4020551,15.99 9.734241,16 10,16 l 0,2 1,-0.01758 L 11,16 l 0.984375,0 0.03125,2 1,0 -0.03125,-2 C 14.892187,15.861524 16,15.633628 16,13.5 16,12 14.999089,11.500955 13.816203,11.5 14.566521,11.443175 14.999459,11 14.999797,9.75 15,9 14.566521,8 13.999797,8 L 13,8 13,6 12,6 12,8 c -0.298624,-5e-6 -0.69683,-0.011 -1,0 l 0,-2 z m 1,3 c 1.410185,0 2.000138,1.52e-5 2,1 1.38e-4,1.000066 -0.730627,1 -2,1 z m 0,3 c 2,7.5e-5 3.000208,2.3e-5 3,1.5 2.08e-4,1.500099 -1,1.5 -3,1.5 z"/>
</svg>
